tenants/businesswise/icons/channel_facebook.svg

<svg fill="none" height="32" viewBox="0 0 32 32" width="32" xmlns="http://www.w3.org/2000/svg"><g clip-rule="evenodd" fill="#000" fill-rule="evenodd"><path d="m16 1.88235c-7.79696 0-14.11765 6.32069-14.11765 14.11765 0 7.797 6.32069 14.1176 14.11765 14.1176 7.797 0 14.1176-6.3206 14.1176-14.1176 0-7.79696-6.3206-14.11765-14.1176-14.11765zm-16 14.11765c0-8.83656 7.16344-16 16-16 8.8366 0 16 7.16344 16 16 0 8.8366-7.1634 16-16 16-8.83656 0-16-7.1634-16-16z"/><path d="m17.3826 24.7618h-3.7161v-8.763h-1.857v-3.0194h1.857v-1.8128c0-2.46308 1.0479-3.92856 4.0272-3.92856h2.4797v3.02056h-1.5498c-1.1598 0-1.2364.4219-1.2364 1.2094l-.0051 1.5114h2.8084l-.3287 3.0194h-2.4797v8.763z"/></g></svg>

<svg width="32" height="32" viewBox="0 0 32 32" fill="none" xmlns="http://www.w3.org/2000/svg">
<path fill-rule="evenodd" clip-rule="evenodd" d="M16 1.88235C8.20304 1.88235 1.88235 8.20304 1.88235 16C1.88235 23.797 8.20304 30.1176 16 30.1176C23.797 30.1176 30.1176 23.797 30.1176 16C30.1176 8.20304 23.797 1.88235 16 1.88235ZM0 16C0 7.16344 7.16344 0 16 0C24.8366 0 32 7.16344 32 16C32 24.8366 24.8366 32 16 32C7.16344 32 0 24.8366 0 16Z" fill="black"/>
<path fill-rule="evenodd" clip-rule="evenodd" d="M17.3826 24.7618H13.6665V15.9988H11.8095V12.9794H13.6665V11.1666C13.6665 8.70352 14.7144 7.23804 17.6937 7.23804H20.1734V10.2586H18.6236C17.4638 10.2586 17.3872 10.6805 17.3872 11.468L17.3821 12.9794H20.1905L19.8618 15.9988H17.3821V24.7618H17.3826Z" fill="black"/>
</svg>
